icon-themes/breeze_svg/cmd/sc_outlinecollapseall.svg

<svg viewBox="0 0 16 16" xmlns="http://www.w3.org/2000/svg"><path d="m11 4v1h-4v-1zm-2 6v1h-2v-1z" fill="#4d4d4d"/><path d="m3.5 2-2.5 3h5zm3.5 0v1h7v-1zm0 6v1h7v-1zm0 5v1h7v-1z" fill="#1d99f3"/></svg>

<svg viewBox="0 0 16 16" xmlns="http://www.w3.org/2000/svg">
  <path
     style="fill:#4d4d4d"
     d="M 11,4 V 5 H 7 V 4 Z m -2,6 v 1 H 7 v -1 z"
     />
  <path
     style="fill:#1d99f3"
     d="M 3.5 2 L 1 5 L 6 5 L 3.5 2 z M 7 2 L 7 3 L 14 3 L 14 2 L 7 2 z M 7 8 L 7 9 L 14 9 L 14 8 L 7 8 z M 7 13 L 7 14 L 14 14 L 14 13 L 7 13 z "
     />
</svg>
